X:1
T:Die schöne Müllerin (D.795)
T:Die böse Farbe
T:17. Die böse Farbe
T:Franz Schubert
T:Die schöne Müllerin (D.795)
T:Wilhelm Müller
T:OpenScore (CC0)
T:OpenScore (CC0)
T:OpenScore (CC0)
T:OpenScore (CC0)
C:Franz Schubert
Z:Wilhelm Müller
Z:OpenScore (CC0)
%%score 1 { ( 2 4 ) | ( 3 5 ) }
L:1/8
Q:1/4=62
M:2/4
K:B
V:1 treble nm="Singstimme"
V:2 bass nm="Pianoforte"
V:4 bass 
V:3 bass 
V:5 bass 
V:1
"^Ziemlich geschwind""^T" z4 | z4 | z4 | z2 z3/2!f! F/ | B3/2 F/ D/F/ B/ d/ | f3/2 e/ c3/2 F/ | %6
w: |||Ich|möch- te zieh'n * in die|Welt hin- aus, hin-|
 B c/ c/ d/f/ e/d/ | c2 z!p! c | d3/2 d/ d3/2 c/ | c3/2 B/ B3/2 B/ | c =d/ d/ c3/2 ^E/ | %11
w: aus in die wei- * te _|Welt, wenn's|nur so grün, so|grün nicht wär' da|drau- ssen in Wald und|
 F2 z3/2 F/ | B F/ F/ D/F/ B/d/ | f3/2 e/ c2 | B c/ c/ d/f/ e/d/ | c2 z c | e c/ c/ B/A/ G/F/ | %17
w: Feld Ich|möch- te die grü- * nen *|Blät- ter all'|pflü- cken von je- * dem *|Zweig, Ich|möch- te die grü- * nen *|
 =d>c B2 | =d B/ B/ c F | (f =g3) | f e/ =d/ c/e/ d/c/ | B2 z3/2 B/ | B3/2 B/ e3/2 B/ | %23
w: Grä- ser all'|wei- nen ganz to- dten-|bleich, _|wei- nen ganz to- * dten- *|bleich Ach|Grün, du bö- se|
 B3/2 =A/ =G2 | z3/2 =A/ =d3/2 A/ | =A3/2 e/ f3/2 f/ | (f/^A/) z/ f/ (f/B/) z/ B/ | e =d c z/ c/ | %28
w: Far- be du,|was siehst mich|im- mer an so|stolz, * so keck, * so|scha- den- froh, mich|
 c3/2 B/ A3/2 c/ | c3/2 B/ A z | z2 z3/2 F/ | B3/2 F/ D/F/ B/ d/ | f3/2 e/ c3/2 F/ | %33
w: ar- men, ar- men|wei- ssen Mann?|Ich|möch- te lie- * gen vor|ih- rer Thür in|
 B c d/f/ e/ d/ | c2 z3/2 F/ | B F/ F/ D/F/ B/ d/ | f3/2 e/ c3/2 c/ | =d B c F/ F/ | (f =g2) g | %39
w: Sturm und Re- * gen und|Schnee. und|sin- gen ganz lei- * se bei|Tag und Nacht das|ei- ne Wört- chen A-|de, _ das|
 f e/=d/ c/e/ d/ c/ | B2 z2 | z2 z3/2 F/ | F3/4 F/4 F/ F/ F3/4 B/4 F/ F/ | %43
w: ei- ne _ Wört- * chen A-|de!|Horch,|wenn im Wald ein Jagd- horn schallt, da|
 F/A/ c/e/ d3/4 c/4 B3/4 z/4 | z2 z3/2 F/ | F3/4 F/4 F/ F/ F3/4 B/4 F/ F/ | %46
w: klingt _ ihr _ Fen- ster- lein,|und|schaut sie auch nach mir nicht aus, darf|
 F3/4 A/4 (3c/ c/ f/ =d2 | z2 z3/2 F/ | F/ B/ =d/ f/ f3/4 ^e/4 e/ e/ | %49
w: ich doch schau- en hin- ein.|O|bin- de von der Stirn dir ab das|
 =e3/4 =g/4 f3/4 e/4 =d3/2 d/ | c3/4 =d/4 c3/4 B/4 A3/2 F/ | B3/2 F/ ^d3/2 B/ | f3/2 e/ c3/2 F/ | %53
w: grü- ne, grü- ne Band, das|grü- ne, grü- ne Band! A-|de, a- de! und|rei- che mir zum|
 B c d/f/ e/d/ | c2 z3/2 F/ | B3/2 F/ d3/2 B/ | f3/2 e/ c3/2 c/ | =d B c F | (f =g2) g | %59
w: Ab- schied dei- * ne *|Hand! A-|de, a- de! und|rei- che mir zum|Ab- schied dei- ne|Hand, _ zum|
 f e/=d/ c/e/ d/c/ | B2 z2 | z4 | z4 | z4 |] %64
w: Ab- schied _ dei- * ne _|Hand!||||
V:2
!p! (3D,/F,/B,/(3D/B,/F,/!>(! (3E,/F,/A,/(3F/A,/F,/!>)! | %1
 (3D,/F,/B,/(3D/B,/F,/!>(! (3E,/F,/A,/(3F/A,/F,/!>)! | %2
!f! (3[=D,F,B,]/[D,F,B,]/[D,F,B,]/(3[F,B,F]/[F,B,F]/[F,B,F]/ (3[F,B,C]/[F,B,C]/[F,B,C]/(3[F,A,CF]/[F,A,CF]/[F,A,CF]/ | %3
[K:treble] B,!arpeggio![B,=DFB] B, z |[K:bass] z [^D,F,B,] z [F,B,D] | z [F,A,CE]2 z | %6
 [D,G,B,][F,A,C] F,2 | C C2 z | z [F,B,D] z [^^F,CD] | z [G,B,D] z2 | %10
 [=A,CF][G,=DF] [A,CF][B,C^E] | %11
 (3[=A,CF]/[F,F]/[F,F]/(3[F,^A,=EF]/[F,A,EF]/[F,A,EF]/"_cresc." (3[F,B,^DF]/[F,B,DF]/[F,B,DF]/(3[F,A,CF]/[F,A,CF]/[F,A,CF]/ | %12
 z [D,F,B,] z [F,B,D] | z [F,A,E]2 z | .[D,G,B,].[F,A,C] [B,D]/[DF]/[CE]/[B,D]/ | C C2 z | %16
!p! z [=E,G,C=E] z [E,F,CE] | z [=D,F,B,=D] z [D,F,B,] | .[F,=D].[=D,F,B,].[E,F,C].[C,F,A,] | %19
!ff! [=D,F,B,]!>(! [E,=G,=C]3!>)! |!f! z [=D,F,B,] z [E,F,A,] | %21
 (3[^D,F,B,]/B,/B,/(3B,/B,/B,/ (3B,/B,/B,/(3B,/B,/B,/ |[K:treble]!p! z2 (B=G | =AF =G2) | z2 (=AF | %25
 =GE F2) | (3F/F/F/(3F/F/F/ (3F/F/F/(3F/F/F/ |[K:treble] (3F/F/F/(3F/F/F/ (3F/F/F/(3F/F/F/ | %28
 (3C/C/C/(3C/C/C/ (3C/C/C/(3C/C/C/ | (3C/C/C/(3C/C/C/ (3C/C/C/(3C/C/C/ | %30
 (3C/C/C/(3[A,EF]/[A,EF]/[A,EF]/ (3[B,DF]/[B,DF]/[B,DF]/(3[A,CF]/[A,CF]/[A,CF]/ | %31
[K:bass]!pp! (3D,/F,/B,/(3D/B,/F,/ (3D,/F,/B,/(3D/B,/F,/ | %32
 (3E,/F,/A,/(3C/A,/F,/ (3E,/F,/A,/(3C/A,/F,/ | (3D,/G,/B,/(3F,/A,/C/ [B,D]/[DF]/[CE]/[B,D]/ | %34
 [F,A,C] (3(^E,/B,/C/ (3F,/)A,/C/(3A,/F,/=E,/ | (3D,/F,/B,/(3D/B,/F,/ (3D,/F,/B,/(3D/B,/F,/ | %36
 (3E,/F,/A,/(3C/A,/F,/ (3E,/F,/A,/(3C/A,/F,/ | (3=D,/F,/=D/(3D,/F,/B,/ (3E,/F,/C/(3C,/F,/A,/ | %38
 [=D,F,B,] [E,=G,=C]3 | z [=D,F,B,] z [E,F,A,] | (3[^D,F,B,]/F/F/(3F/F/F/ (3F/F/F/(3F/F/[DF]/ | %41
 (3[CF]/[EF]/[DF]/(3.[CF]/.[CF]/.[CF]/ (3[DF]/[CF]/[B,F]/(3.[B,F]/.[B,F]/.[B,F]/ | %42
 (3[CF]/[EF]/[DF]/(3[CF]/[CF]/[CF]/ (3[DF]/[CF]/[B,F]/(3[B,F]/[B,F]/[B,F]/ | %43
 (3[CF]/[EF]/[DF]/(3[CF]/[CF]/[CF]/ (3[DF]/[CF]/[B,F]/(3[B,F]/[B,F]/[B,F]/ | %44
 (3[CF]/[EF]/[DF]/(3[CF]/[CF]/[CF]/ (3[DF]/[CF]/[B,F]/(3[B,F]/[B,F]/[B,F]/ | %45
 (3[CF]/[EF]/[=DF]/(3[CF]/[CF]/[CF]/ (3[B,F]/[=DF]/[CF]/(3[B,F]/[B,F]/[B,F]/ | %46
 (3[CF]/[EF]/[=DF]/(3[CF]/[CF]/[CF]/ (3[B,F]/[DF]/[CF]/(3[B,F]/[B,F]/[B,F]/ | %47
 (3[=DF]/[CF]/[B,F]/(3[DF]/[CF]/[B,F]/ (3[DF]/[CF]/[B,F]/(3[DF]/[CF]/[B,F]/ | %48
 (3z/ [F,B,F]/[F,B,F]/ (3z/ [F,B,F]/[F,B,F]/ (3z/ [G,B,^E]/[G,B,E]/ (3z/ [G,B,E]/[G,B,E]/ | %49
 (3z/ [=G,C=E]/[G,CE]/ (3z/ [G,CE]/[G,CE]/ (3z/ [F,C=D]/[F,CD]/ (3z/ [F,B,D]/[F,B,D]/ | %50
 (3z/ [=G,B,C]/[G,B,C]/ (3z/ [^G,B,C]/[G,B,C]/ (3z/ [F,A,C]/[F,A,C]/ (3z/ [=E,F,A,C]/[E,F,A,C]/ | %51
 (3^D,/F,/B,/(3D/B,/F,/ (3D,/F,/B,/(3D/B,/F,/ | (3E,/F,/A,/(3C/A,/F,/ (3E,/F,/A,/(3C/A,/F,/ | %53
 (3D,/G,/B,/(3F,/A,/C/ ([B,D]/[DF]/[CE]/[B,D]/) | [F,A,C] (3(^E,/B,/C/ (3F,/)A,/C/(3A,/F,/=E,/ | %55
 (3D,/F,/B,/(3D/B,/F,/ (3D,/F,/B,/(3D/B,/F,/ | (3E,/F,/A,/(3C/A,/F,/ (3E,/F,/A,/(3C/A,/F,/ | %57
 (3=D,/F,/=D/(3D,/F,/B,/ (3E,/F,/C/(3C,/F,/A,/ | [=D,F,B,] !>![E,=G,=C]3 | z [=D,F,B,] z [E,F,A,] | %60
 (3^D,/F,/B,/(3D/B,/F,/!>(! (3E,/F,/A,/(3F/A,/F,/!>)! | %61
 (3D,/F,/B,/(3D/B,/F,/!>(! (3E,/F,/A,/(3F/A,/F,/!>)! | %62
!<(! (3[=D,F,B,]/[D,F,B,]/[D,F,B,]/(3[F,B,F]/[F,B,F]/[F,B,F]/!<)!!>(! (3[F,B,C]/[F,B,C]/[F,B,C]/(3[F,A,CF]/[F,A,CF]/[F,A,CF]/!>)! | %63
[K:treble] B,[B,=DFB] B, z |] %64
V:3
 [B,,,F,,B,,]2 [B,,,F,,C,]2 | [B,,,F,,B,,]2 [B,,,F,,C,]2 | %2
 (3B,,,/B,,,/B,,,/(3=D,,/D,,/D,,/ (3F,,/F,,/F,,/(3F,,,/F,,,/F,,,/ | B,,,[B,,,B,,] B,,, z | %4
!ff! [B,,,B,,] z [B,,,B,,] z | [F,,,F,,]3 z | [G,,,G,,][F,,,F,,] [B,,,B,,]>D,, | %7
 F,, ([C,,G,,]F,,) z | B,, z A,, z | G,, z z2 | .=A,,.B,,.C,.C, | %11
 F,, (3[F,,C,]/[F,,C,]/[F,,C,]/ (3[F,,^D,]/[F,,D,]/[F,,D,]/(3[F,,E,]/[F,,E,]/[F,,E,]/ | %12
 [B,,,B,,] z [B,,,B,,] z | [F,,,F,,]3 z | [G,,,G,,][F,,,F,,] [B,,,B,,]>D,, | F,, ([C,,G,,]F,,) z | %16
 [C,,C,] z [F,,,F,,] z | [B,,,B,,] z =D,, z | F,,F,,F,,F,, | =D,, E,,3 | [F,,,F,,] z [F,,,F,,] z | %21
 [B,,,B,,] z z2 | (3B,/B,/B,/(3B,/B,/B,/ (3B,/B,/B,/(3B,/B,/B,/ | %23
 (3B,/B,/B,/(3B,/B,/B,/ (3B,/B,/B,/(3B,/B,/B,/ | (3=A,/A,/A,/(3A,/A,/A,/ (3A,/A,/A,/(3A,/A,/A,/ | %25
 (3=A,/A,/A,/(3A,/A,/A,/ (3A,/A,/A,/(3A,/A,/A,/ | .[E,F,].[E,F,].[=D,F,].[D,F,] | %27
 .[C,F,].[B,,F,] [F,,F,] z | (=G,2 F,2) | (=G,2 F,2) | %30
 z (3[F,,C,]/[F,,C,]/[F,,C,]/ (3[G,,D,]/[G,,D,]/[G,,D,]/(3[F,,E,]/[F,,E,]/[F,,E,]/ | %31
 [B,,,F,,B,,]4 | [F,,,F,,]4 | [G,,,G,,][F,,,F,,] [B,,,B,,]>D,, | F,, ([C,,G,,]F,,) z | [B,,,B,,]4 | %36
 [F,,,F,,]4 | F,,F,,F,,F,, | =D,, E,,3 | F,, z F,, z | [B,,,B,,] z z (3z/ z/ B,/ | %41
 (3F,/C/B,/(3.F,/.F,/.F,/ (3B,/F,/D,/(3.D,/.D,/.D,/ | %42
 (3F,/C/B,/(3F,/F,/F,/ (3B,/F,/D,/(3D,/D,/D,/ | (3F,/C/B,/(3F,/F,/F,/ (3B,/F,/D,/(3D,/D,/D,/ | %44
 (3F,/C/B,/(3F,/F,/F,/ (3B,/F,/D,/(3D,/D,/D,/ | (3F,/C/B,/(3F,/F,/F,/ (3=D,/B,/F,/(3D,/D,/D,/ | %46
 (3F,/C/B,/(3F,/F,/F,/ (3=D,/B,/F,/(3D,/D,/D,/ | (3B,/F,/=D,/(3B,/F,/D,/ (3B,/F,/D,/(3B,/F,/D,/ | %48
 [=D,,=D,]/ z/ [D,,D,]/ z/ [C,,C,]/ z/ [C,,C,]/ z/ | %49
 [^A,,,^A,,]/ z/ [A,,,A,,]/ z/ [B,,,B,,]/ z/ [B,,,B,,]/ z/ | E,,/ z/ ^E,,/ z/ F,,/ z/ F,,/ z/ | %51
 [B,,,F,,B,,]4 | [F,,,F,,]4 | [G,,,G,,][F,,,F,,] !>![B,,,B,,]>D,, | F,, (!>![C,,G,,]F,,) z | %55
 [B,,,F,,B,,]4 | [F,,,F,,]4 | .F,,.F,,.F,,.F,, | =D,, !>!E,,3 | [F,,,F,,] z [F,,,F,,] z | %60
 [B,,,F,,B,,]2 [B,,,F,,C,]2 | [B,,,F,,B,,]2 [B,,,F,,C,]2 | %62
 (3B,,,/B,,,/B,,,/(3=D,,/D,,/D,,/ (3F,,/F,,/F,,/(3F,,,/F,,,/F,,,/ | B,,,[B,,,B,,] B,,, z |] %64
V:4
 x4 | x4 | x4 |[K:treble] x4 |[K:bass] x4 | x4 | x2 [B,D]/[DF]/[CE]/[B,D]/ | %7
 [F,A,] ([^E,B,][F,A,]) x | x4 | x4 | x4 | x4 | x4 | x4 | x2 F,2 | [F,A,] ([^E,B,][F,A,]) x | x4 | %17
 x4 | x4 | x4 | x4 | x4 |[K:treble] x4 | x4 | x4 | x4 | (^A,2 B,2) | %27
[K:treble] ([A,E][B,=D] [A,C]2) | (^E2 F2) | (^E2 F2) | x4 |[K:bass] x4 | x4 | x2 F,2 | x ^E,F, z | %35
 x4 | x4 | x4 | x4 | x4 | x4 | x4 | x4 | x4 | x4 | x4 | x4 | x4 | x4 | x4 | x4 | x4 | x4 | x2 F,2 | %54
 x ^E,F, z | x4 | x4 | x4 | x4 | x4 | x4 | x4 | x4 |[K:treble] x4 |] %64
V:5
 x4 | x4 | x4 | x4 | x4 | x4 | x4 | x4 | x4 | x4 | x4 | x4 | x4 | x4 | x4 | x4 | x4 | x4 | x4 | %19
 x4 | x4 | x4 | .=A,.F, .=G,.E, | .F,.D, E,2 | .=G,.E, .F,.=D, | .E,.C, =D,2 | x4 | x4 | x4 | x4 | %30
 x4 | x4 | x4 | x4 | x4 | x4 | x4 | x4 | x4 | x4 | x4 | x4 | x4 | x4 | x4 | x4 | x4 | x4 | x4 | %49
 x4 | x4 | x4 | x4 | x4 | x4 | x4 | x4 | x4 | x4 | x4 | x4 | x4 | x4 | x4 |] %64

